X:7
T:7 Hereford Hornpipe
C:Aylmore MS
I:abc2nwc
M:C
L:1/8
K:G
GA|B2B2BdBG|c2c2BdBG|A2G2ABcA|B2G2G2GA|
B2B2BdBG|cBcd edef|gedB cAGF|G2G2G2:|
GA|d2B2gfge|e2d2dcBc|d2B2gfgd|e2d2dcBA|
GdBd GdBd|Aece Aece|GdBd GdBd|DAFA DAFA|
GdBd GdBd|cBcd edef|gedB cAGF|G2G2G2|]

